assets/Woman in manual wheelchair/Dark/Flat/woman_in_manual_wheelchair_flat_dark.svg

<svg width="32" height="32" viewBox="0 0 32 32" fill="none" xmlns="http://www.w3.org/2000/svg">
<path d="M8.33643 22.3067L9.48643 16.7167C9.69643 15.6667 10.2564 15.2867 10.9864 15.2367L15.3064 14.8667L19.6664 14.6667C19.6664 14.6667 20.4464 17.6467 19.2964 17.6467L12.1964 17.7867C12.0164 17.7867 11.8564 17.8967 11.7964 18.0567L9.40643 23.7467L8.33643 22.3067Z" fill="#9B9B9B"/>
<path d="M9.44652 23.6668L8.95652 24.7068C8.90652 24.8168 8.77652 24.8568 8.67652 24.8068L5.17652 23.1768C4.90652 23.0468 4.95652 22.6468 5.25652 22.5968L8.34652 22.3068L9.44652 23.6668Z" fill="#533566"/>
<path d="M21.3168 10.9567C20.9633 10.9567 20.6768 11.2432 20.6768 11.5967C20.6768 11.9501 20.9633 12.2367 21.3168 12.2367H24.3268C24.6802 12.2367 24.9668 11.9501 24.9668 11.5967C24.9668 11.2432 24.6802 10.9567 24.3268 10.9567H21.3168Z" fill="#212121"/>
<path d="M11.6567 17.6667H19.6167V20.1367H11.1167V18.2067C11.1167 17.9067 11.3567 17.6667 11.6567 17.6667Z" fill="#212121"/>
<path d="M11.64 22.4366C11.9935 22.4366 12.28 22.7232 12.28 23.0766V28.3166C12.28 28.6701 11.9935 28.9566 11.64 28.9566C11.2865 28.9566 11 28.6701 11 28.3166V23.0766C11 22.7232 11.2865 22.4366 11.64 22.4366Z" fill="#9B9B9B"/>
<path d="M21.9404 11.7778C22.0404 11.4388 21.8467 11.0829 21.5077 10.9829C21.1687 10.8829 20.8128 11.0766 20.7127 11.4156L19.4793 15.5967H14.92C13.5865 15.5967 12.5 16.6832 12.5 18.0167V19.0566H11.64C11.2865 19.0566 11 19.3432 11 19.6966V19.9383L8.4861 25.3574C8.33735 25.678 8.4767 26.0585 8.79734 26.2073C9.11798 26.356 9.49849 26.2167 9.64724 25.896L11 22.9799V23.7866C11 24.1401 11.2865 24.4266 11.64 24.4266H11.65C12.4503 24.4266 13.1062 25.0763 13.1201 25.8679C13.1262 26.2169 13.4109 26.4966 13.76 26.4966H20.01C20.3635 26.4966 20.65 26.2101 20.65 25.8566V20.1311C20.7555 20.017 20.82 19.8644 20.82 19.6967V16.2367C20.82 16.1131 20.785 15.9978 20.7244 15.8999L21.9404 11.7778ZM19.54 19.0566H13.78V18.0167C13.78 17.3901 14.2935 16.8767 14.92 16.8767H19.54V19.0566ZM13.1329 20.3366C13.1352 20.3367 13.1376 20.3367 13.14 20.3367C13.1424 20.3367 13.1448 20.3367 13.1471 20.3366H19.37V25.2166H14.3154C14.0633 24.2311 13.2747 23.4542 12.28 23.2196V20.3366H13.1329Z" fill="#F92F60"/>
<path d="M27.0267 23.7867C27.0267 27.2826 24.1927 30.1167 20.6967 30.1167C17.2007 30.1167 14.3667 27.2826 14.3667 23.7867C14.3667 20.2907 17.2007 17.4567 20.6967 17.4567C24.1927 17.4567 27.0267 20.2907 27.0267 23.7867Z" fill="#321B41"/>
<path d="M13.4766 28.3367C13.4766 29.2921 12.7021 30.0667 11.7466 30.0667C10.7911 30.0667 10.0166 29.2921 10.0166 28.3367C10.0166 27.3812 10.7911 26.6067 11.7466 26.6067C12.7021 26.6067 13.4766 27.3812 13.4766 28.3367Z" fill="#321B41"/>
<path d="M25.6965 23.7867C25.6965 26.5482 23.458 28.7867 20.6965 28.7867C17.9351 28.7867 15.6965 26.5482 15.6965 23.7867C15.6965 21.0253 17.9351 18.7867 20.6965 18.7867C23.458 18.7867 25.6965 21.0253 25.6965 23.7867Z" fill="#9B9B9B"/>
<path d="M8.8266 26.3167C8.9166 26.3567 9.0166 26.3767 9.1066 26.3767C9.3566 26.3767 9.5966 26.2367 9.6966 25.9967C9.8466 25.6667 9.7066 25.2767 9.3766 25.1267L6.1466 23.6367C5.8166 23.4867 5.4266 23.6267 5.2766 23.9567C5.1266 24.2867 5.2666 24.6767 5.5966 24.8267L8.8266 26.3167Z" fill="#9B9B9B"/>
<path d="M20.6966 27.9267C22.9831 27.9267 24.8366 26.0732 24.8366 23.7867C24.8366 21.5003 22.9831 19.6467 20.6966 19.6467C18.4102 19.6467 16.5566 21.5003 16.5566 23.7867C16.5566 26.0732 18.4102 27.9267 20.6966 27.9267Z" fill="#D3D3D3"/>
<path d="M20.6966 24.9667C21.3483 24.9667 21.8766 24.4384 21.8766 23.7867C21.8766 23.135 21.3483 22.6067 20.6966 22.6067C20.0449 22.6067 19.5166 23.135 19.5166 23.7867C19.5166 24.4384 20.0449 24.9667 20.6966 24.9667Z" fill="#212121"/>
<path d="M16.4066 6.45667L17.0366 8.29667L15.1566 8.95667L14.5366 7.07666L16.4066 6.45667Z" fill="#452829"/>
<path d="M16.3567 8.01665C15.1267 8.30665 14.3667 9.53665 14.6567 10.7667L15.3167 14.8766L20.3267 16.7766L19.1067 9.71665C18.8167 8.48665 17.5767 7.72665 16.3567 8.01665Z" fill="#8B62BF"/>
<path d="M17.5035 9.18267C17.1975 8.82534 16.6597 8.78372 16.3024 9.08971C15.9451 9.39569 15.9035 9.93341 16.2095 10.2907L18.9058 13.4395L18.008 17.1375C17.8189 17.2089 17.2457 17.461 17.3966 17.8467C17.5066 18.1367 17.5366 18.2567 17.5366 18.2567C17.5366 18.2567 17.3166 18.4967 17.5166 18.7067C17.7766 18.9867 18.2066 19.1067 18.2066 19.1067C18.5566 19.2067 19.0366 19.2067 19.2066 19.0267C19.3505 18.8828 19.4392 18.5088 19.4903 18.2932C19.4925 18.2841 19.4946 18.2752 19.4966 18.2667L19.6182 17.6912C19.6326 17.6547 19.6447 17.6168 19.6542 17.5777L20.6642 13.4177C20.7288 13.1516 20.6616 12.8707 20.4835 12.6627L17.5035 9.18267Z" fill="#573739"/>
<path d="M19.2465 10.9867L17.4065 8.95665C17.0265 8.53665 16.3765 8.50665 15.9465 8.88665C15.5265 9.26665 15.4965 9.91666 15.8765 10.3467L17.7065 12.3667L19.2465 10.9867Z" fill="#A17FD5"/>
<path d="M14.91 3.15995L13.89 3.32995C13.04 3.47995 12.46 4.29995 12.61 5.15995L12.69 5.58995C12.71 5.72995 12.7 5.86995 12.65 5.99995C12.5 6.38995 12.41 6.43995 12.43 6.60995C12.46 6.88995 12.73 6.90995 12.85 6.89995C12.89 6.89995 12.92 6.91995 12.93 6.95995C13.13 7.91995 13.42 8.57995 14.57 8.37995C15.27 8.25995 16.32 7.70995 16.49 6.82995L16.59 5.65995L16.72 4.42995C16.58 3.57995 15.76 3.00995 14.91 3.15995Z" fill="#573739"/>
<path d="M13.9067 6.78564C13.9643 6.79486 14.0035 6.84901 13.9943 6.9066C13.9454 7.21212 13.653 7.43373 13.3433 7.38419C13.2857 7.37498 13.2465 7.32082 13.2557 7.26323C13.265 7.20565 13.3191 7.16643 13.3767 7.17564C13.5671 7.2061 13.7546 7.06772 13.7857 6.87323C13.795 6.81564 13.8491 6.77643 13.9067 6.78564Z" fill="#290118"/>
<path d="M13.8318 4.84971C13.8871 4.87828 13.9089 4.94637 13.8804 5.00173C13.8518 5.05703 13.7839 5.07876 13.7285 5.0503L13.7275 5.0498L13.7199 5.04628C13.7127 5.04305 13.7013 5.0382 13.6861 5.03254C13.6558 5.0212 13.6107 5.00678 13.5545 4.99564C13.4418 4.97334 13.2864 4.96455 13.1133 5.0178C13.0537 5.03612 12.9906 5.00271 12.9723 4.94316C12.954 4.88362 12.9874 4.8205 13.0469 4.80218C13.2639 4.73544 13.4584 4.74664 13.5983 4.77434C13.6683 4.7882 13.7251 4.80628 13.765 4.82119C13.785 4.82866 13.8009 4.83537 13.8122 4.84042L13.8256 4.84665L13.8296 4.84863L13.8318 4.84971Z" fill="black"/>
<path d="M13.0601 5.57997C13.0601 5.57997 13.1901 5.21997 13.6001 5.21997C13.7601 5.21997 13.8901 5.28997 13.9701 5.34997C14.0401 5.39997 14.0501 5.50997 13.9901 5.56997L13.7401 5.81997L13.0601 5.57997Z" fill="black"/>
<path d="M13.1601 5.98001C13.1001 5.99001 13.0401 5.94001 13.0201 5.87001V5.86001C12.9701 5.58001 13.1901 5.37001 13.4201 5.33001C13.6501 5.29001 13.9301 5.41001 13.9801 5.69001V5.70001C14.0001 5.77001 13.9601 5.84001 13.9001 5.85001L13.1601 5.98001Z" fill="white"/>
<path d="M13.07 6.00377C13.05 5.96377 13.03 5.92377 13.02 5.87377C12.98 5.66377 13.09 5.47377 13.25 5.44377C13.41 5.41377 13.57 5.56377 13.61 5.76377C13.62 5.81377 13.62 5.85377 13.61 5.90377L13.07 6.00377Z" fill="#7D4533"/>
<path d="M13.16 5.98278C13.13 5.95278 13.11 5.91278 13.1 5.86278C13.08 5.74278 13.14 5.63278 13.23 5.61278C13.32 5.59278 13.42 5.68278 13.44 5.79278C13.45 5.84278 13.44 5.89278 13.43 5.93278L13.16 5.98278Z" fill="black"/>
<path d="M13.1521 5.75962C13.1847 5.75391 13.2058 5.71841 13.1991 5.68033C13.1924 5.64225 13.1606 5.61601 13.1279 5.62172C13.0953 5.62744 13.0742 5.66294 13.0809 5.70102C13.0876 5.7391 13.1194 5.76534 13.1521 5.75962Z" fill="white"/>
<path d="M13.14 2.40997C12.58 2.30997 12.13 2.90997 12.08 3.46997C12.05 3.86997 12.24 4.22997 12.55 4.42997C12.64 4.49997 12.77 4.53997 12.92 4.57997C13.04 4.60997 13.17 4.61997 13.3 4.60997C13.55 4.58997 13.78 4.50997 13.98 4.36997C14.1 4.28997 14.24 4.23997 14.38 4.23997C14.56 4.23997 14.73 4.29997 14.87 4.42997C15.03 4.56997 15.13 4.75997 15.17 4.97997L15.1771 5.02339C15.4919 5.00298 15.7829 5.22507 15.8389 5.5516C15.8954 5.87168 15.6948 6.18289 15.3792 6.26832L15.42 6.51997C15.54 7.30997 16.16 7.93997 16.97 8.04997C16.99 8.04997 17.0075 8.05247 17.025 8.05497C17.0425 8.05747 17.06 8.05997 17.08 8.05997C17.1 8.05997 17.12 8.06247 17.14 8.06497C17.16 8.06747 17.18 8.06997 17.2 8.06997C17.93 8.09997 18.62 7.52997 18.63 6.67997C18.63 6.27997 18.46 5.89997 18.15 5.64997C18.09 5.59997 18.03 5.55997 17.97 5.51997C17.72 5.36997 17.58 5.08997 17.59 4.79997C17.61 4.44997 17.58 3.99997 17.46 3.39997C17.14 1.70997 15.56 1.81997 14.56 2.30997C14.0314 2.57427 13.8364 2.53709 13.4612 2.46558C13.3679 2.4478 13.2635 2.42789 13.14 2.40997Z" fill="black"/>
</svg>

<svg xmlns="http://www.w3.org/2000/svg" width="32" height="32" fill="none"><path fill="#9B9B9B" d="m8.336 22.307 1.15-5.59c.21-1.05.77-1.43 1.5-1.48l4.32-.37 4.36-.2s.78 2.98-.37 2.98l-7.1.14c-.18 0-.34.11-.4.27l-2.39 5.69-1.07-1.44Z"/><path fill="#533566" d="m9.447 23.667-.49 1.04c-.05.11-.18.15-.28.1l-3.5-1.63c-.27-.13-.22-.53.08-.58l3.09-.29 1.1 1.36Z"/><path fill="#212121" d="M21.317 10.957a.64.64 0 1 0 0 1.28h3.01a.64.64 0 0 0 0-1.28h-3.01ZM11.657 17.667h7.96v2.47h-8.5v-1.93c0-.3.24-.54.54-.54Z"/><path fill="#9B9B9B" d="M11.64 22.437a.64.64 0 0 1 .64.64v5.24a.64.64 0 1 1-1.28 0v-5.24a.64.64 0 0 1 .64-.64Z"/><path fill="#F92F60" d="M21.94 11.778a.64.64 0 1 0-1.227-.362l-1.234 4.18H14.92a2.424 2.424 0 0 0-2.42 2.42v1.04h-.86a.64.64 0 0 0-.64.64v.242l-2.514 5.42a.64.64 0 1 0 1.161.538L11 22.98v.807c0 .353.287.64.64.64h.01c.8 0 1.456.65 1.47 1.44a.64.64 0 0 0 .64.63h6.25a.64.64 0 0 0 .64-.64V20.13a.638.638 0 0 0 .17-.434v-3.46a.638.638 0 0 0-.096-.337l1.216-4.122Zm-2.4 7.279h-5.76v-1.04c0-.627.514-1.14 1.14-1.14h4.62v2.18Zm-6.407 1.28h6.237v4.88h-5.055a2.764 2.764 0 0 0-2.035-1.997v-2.883h.853Z"/><path fill="#321B41" d="M27.027 23.787a6.33 6.33 0 1 1-12.66 0 6.33 6.33 0 0 1 12.66 0ZM13.477 28.337a1.73 1.73 0 1 1-3.46 0 1.73 1.73 0 0 1 3.46 0Z"/><path fill="#9B9B9B" d="M25.697 23.787a5 5 0 1 1-10 0 5 5 0 0 1 10 0ZM8.827 26.317c.09.04.19.06.28.06.25 0 .49-.14.59-.38.15-.33.01-.72-.32-.87l-3.23-1.49a.655.655 0 1 0-.55 1.19l3.23 1.49Z"/><path fill="#D3D3D3" d="M20.697 27.927a4.14 4.14 0 1 0 0-8.28 4.14 4.14 0 0 0 0 8.28Z"/><path fill="#212121" d="M20.697 24.967a1.18 1.18 0 1 0 0-2.36 1.18 1.18 0 0 0 0 2.36Z"/><path fill="#452829" d="m16.407 6.457.63 1.84-1.88.66-.62-1.88 1.87-.62Z"/><path fill="#8B62BF" d="M16.357 8.017a2.285 2.285 0 0 0-1.7 2.75l.66 4.11 5.01 1.9-1.22-7.06a2.29 2.29 0 0 0-2.75-1.7Z"/><path fill="#573739" d="M17.503 9.183a.852.852 0 0 0-1.294 1.108l2.697 3.149-.898 3.697c-.19.072-.762.324-.611.71.11.29.14.41.14.41s-.22.24-.02.45c.26.28.69.4.69.4.35.1.83.1 1-.08.143-.144.232-.518.283-.734a4.43 4.43 0 0 0 .007-.026l.121-.576a.867.867 0 0 0 .036-.113l1.01-4.16a.852.852 0 0 0-.18-.755l-2.98-3.48Z"/><path fill="#A17FD5" d="m19.247 10.987-1.84-2.03c-.38-.42-1.03-.45-1.46-.07-.42.38-.45 1.03-.07 1.46l1.83 2.02 1.54-1.38Z"/><path fill="#573739" d="m14.91 3.16-1.02.17c-.85.15-1.43.97-1.28 1.83l.08.43c.02.14.01.28-.04.41-.15.39-.24.44-.22.61.03.28.3.3.42.29.04 0 .07.02.08.06.2.96.49 1.62 1.64 1.42.7-.12 1.75-.67 1.92-1.55l.1-1.17.13-1.23c-.14-.85-.96-1.42-1.81-1.27Z"/><path fill="#290118" d="M13.907 6.786c.057.009.097.063.087.12a.576.576 0 0 1-.65.478.106.106 0 1 1 .033-.208c.19.03.378-.108.409-.303a.106.106 0 0 1 .12-.087Z"/><path fill="#000" d="M13.832 4.85a.113.113 0 0 1-.104.2l-.008-.004a.852.852 0 0 0-.165-.05.901.901 0 0 0-.442.022.113.113 0 1 1-.066-.216 1.127 1.127 0 0 1 .765.038l.014.007.004.002h.002ZM13.06 5.58s.13-.36.54-.36c.16 0 .29.07.37.13.07.05.08.16.02.22l-.25.25-.68-.24Z"/><path fill="#fff" d="M13.16 5.98c-.06.01-.12-.04-.14-.11v-.01c-.05-.28.17-.49.4-.53.23-.04.51.08.56.36v.01c.02.07-.02.14-.08.15l-.74.13Z"/><path fill="#7D4533" d="M13.07 6.004c-.02-.04-.04-.08-.05-.13-.04-.21.07-.4.23-.43.16-.03.32.12.36.32.01.05.01.09 0 .14l-.54.1Z"/><path fill="#000" d="M13.16 5.983a.228.228 0 0 1-.06-.12c-.02-.12.04-.23.13-.25.09-.02.19.07.21.18.01.05 0 .1-.01.14l-.27.05Z"/><path fill="#fff" d="M13.152 5.76c.033-.006.054-.042.047-.08-.007-.038-.038-.064-.071-.058-.033.005-.054.04-.047.079.007.038.038.064.071.059Z"/><path fill="#000" d="M13.14 2.41c-.56-.1-1.01.5-1.06 1.06-.03.4.16.76.47.96.09.07.22.11.37.15.12.03.25.04.38.03.25-.02.48-.1.68-.24a.704.704 0 0 1 .89.06c.16.14.26.33.3.55l.007.043a.634.634 0 0 1 .202 1.245l.041.252a1.814 1.814 0 0 0 1.605 1.535c.018.002.035.005.055.005.02 0 .04.002.06.005.02.002.04.005.06.005.73.03 1.42-.54 1.43-1.39 0-.4-.17-.78-.48-1.03-.06-.05-.12-.09-.18-.13a.804.804 0 0 1-.38-.72c.02-.35-.01-.8-.13-1.4-.32-1.69-1.9-1.58-2.9-1.09-.529.264-.724.227-1.099.156-.093-.018-.197-.038-.321-.056Z"/></svg>
